X: 29661
T: Northumberland Quadrill
R: polka
M: 2/4
K: Cmajor
|:(3GAB|cc GG|ee cc|d/c/B/A/ G/A/B/G/|c/B/c/d/ e/G/A/B/|
cc GG|ee cc|d/c/B/A/ G/F/E/D/|C2:|
|:G/F/E/D/|G2 F/G/B/d/|E/G/c/e/ E/G/c/e/|f/e/d/c/ B/G/A/B/|c/d/e/c/ GG|
F/G/B/d/ F/G/B/d/|E/G/c/e/ G/c/e/g/|f/e/d/c/ B/G/A/B/|c2:|

